!!!OTL: Schön herzlieb (2-85) S. 251
!!!id: P0956
**kern
*clefG2
*k[b-e-]
*g:
{8a
8g
8a
=1
4b-
4a
=2yy
8g
8g
8a
8b-
=3yy
8g
=4
4.a}
=5
{8a
8g
8a
=6
4b-
4a
=7yy
8g
8g
8a
8b-
=8yy
8g
=9
4.a}
=10
{8g
8g
8g
=11
*M3/4
4dd
4dd
8ee-
8dd
=12
8cc}
=13
{8b-
8a
8b-
=14
8cc
8b-
8dd
8cc
8b-
8a
=15
4.g}
==
*-
!!!minrhy: 8
!!!meters: 2/4 3/4 ]  ZZ[4
!!!cut: Schön herzlieb (2-85) S. 251
!!!reg: Lothringen
!!!trd: PINCK, Louis: Verklingende Weisen, Bd 2, Metz 1928
!!!rhy1: XXX  X_X_(XXX)  X_.
!!!rhy2: XXX  X_X_(XXX)  X_.
!!!key: P0956  08  G 2/4 3/4 ]  ZZ[4
!!!mod: SECHSTONSKALA MOLL ?]  AMBITUS[6b
!!!kad: 2241
!!!akz: 3b2_3b2_54_41_
!!!fot: 'a__a__b__c__
!!!for: 'a__a__b__c__
!!!fok: '-__-__^a_^d_
!! PHRAS[AUFTAKTIG]
!!!fkt: Liebe, Treueversprechen, Hochzeit
!! LOTH VKL
!! PR[22] 2K[11] 2G[22] 3K[3] 3G[3] 4A[3] 4Ü[0] 5A[0] 6K[0] 6G[0]
!! 7K[0] 7G[0] 8A[0] MEHR[0] SI[41] ABS[37] SR[32] SP[8]
!! ST[12] 2k[8] 2g[24] 3k[5] 3g[0] 4d[0] 4ü[0] 5d[0] 6k[0] 6g[0]
!! 7k[0] 7g[0] 8d[0] mehr[0] si[38] dm[+3] sr[32] sp[5]
!! 1F[2] 2F[66] 3F[27] 4F[0] LF[0] 2P[2] 3P[2] 4P[0] TRI[0] DF[5] AB[41]
!! TF[0] U3K[0] U3[0] U4[0] U4Ü[0] U5[5] U6K[0] U6[0] U7K[0] U7[0]
!! N1[21] N2K[0] N2[18] N3K[21] N3[0] N4[21] N4Ü[0] N5[13] N6K[0] N6[0]
!!!n7k: 0] N7[0] O1[0] O2K[0] O2[0] O3K[0] O3[0] HÖ[0
